icons/brackets/brackets.svg

<svg width="14" height="14" viewBox="0 0 14 14" fill="none" xmlns="http://www.w3.org/2000/svg">
<path d="M5.5 11H5V11C4.44772 11 4 10.5523 4 10V8.57311C4 8.24443 3.8139 7.94155 3.52218 7.79013V7.79013C2.89058 7.46228 2.88579 6.55211 3.52085 6.231V6.231C3.81473 6.0824 4 5.78111 4 5.45181V4C4 3.44772 4.44772 3 5 3V3H5.5" stroke="red" stroke-linecap="round" stroke-linejoin="round"/>
<path d="M8.49994 3H8.99998V3C9.55226 3 9.99998 3.44772 9.99998 4V5.47214C9.99998 5.79565 10.1828 6.09139 10.4721 6.23607V6.23607C11.1016 6.55083 11.1016 7.44917 10.4721 7.76393V7.76393C10.1828 7.90861 9.99998 8.20435 9.99998 8.52786V10C9.99998 10.5523 9.55226 11 8.99998 11V11H8.49994" stroke="red" stroke-linecap="round" stroke-linejoin="round"/>
</svg>

<svg xmlns="http://www.w3.org/2000/svg" width="14" height="14" fill="none" viewBox="0 0 14 14"><path stroke="red" stroke-linecap="round" stroke-linejoin="round" d="M5.5 11H5v0a1 1 0 0 1-1-1V8.573a.89.89 0 0 0-.478-.783v0c-.631-.328-.636-1.238-.001-1.559v0A.87.87 0 0 0 4 5.451V4a1 1 0 0 1 1-1v0h.5m3 0H9v0a1 1 0 0 1 1 1v1.472c0 .324.183.62.472.764v0a.854.854 0 0 1 0 1.528v0a.85.85 0 0 0-.472.764V10a1 1 0 0 1-1 1v0h-.5"/></svg>
